X: 07008
T: BACK AGAIN
C: Bob McQuillen 1 Sept 88
B: Bob's Note Book 7 #8
%R: jig
Z: 2020 John Chambers <jc:trillian.mit.edu>
M: 6/8
L: 1/8
K: Em	% and G
D \
| EGE D2B,| D2E GED | EGE D2E | G2A BAG |\
| EDE G2D | GAB d2B | ABA GED | E2F G2 :|
|: B \
| d2d edB | G2A BAB | GBd edB | A2G EFG |\
| BdB G2D | EGE D2E | GAB dBG |1 ABA G2 :|2 A3 G2 |]
%%begintext align
%% Back to work again, and about
%% time, don't you think? _That_
%% vacation was _much_ too long!
%%endtext

%%sep 1 1 500

%%sep 1 1 500

